svg/panel_log.svg

<svg width="24" height="24" viewBox="0 0 24 24" xmlns="http://www.w3.org/2000/svg">
<path d="M15.991 2H7.97897C7.44774 2 6.93827 2.21071 6.56263 2.58579C6.187 2.96086 5.97596 3.46957 5.97596 4H14.9895V9H19.997V20H5.97596C5.97596 20.5304 6.187 21.0391 6.56263 21.4142C6.93827 21.7893 7.44774 22 7.97897 22H19.997C20.5282 22 21.0377 21.7893 21.4133 21.4142C21.789 21.0391 22 20.5304 22 20V8L15.991 2Z" />
<path d="M13.0165 12.46H8.00901V18H13.0165V12.46Z" />
<path d="M13.0165 6H2V11.54H13.0165V6Z" />
<path d="M7.00751 12.46H2V18H7.00751V12.46Z" />
</svg>

<svg width="24" height="24" viewBox="0 0 24 24" xmlns="http://www.w3.org/2000/svg"><path d="M15.991 2H7.979a2.005 2.005 0 0 0-2.003 2h9.013v5h5.008v11H5.976a1.999 1.999 0 0 0 2.003 2h12.018A2.004 2.004 0 0 0 22 20V8l-6.009-6z"/><path d="M13.017 12.46H8.009V18h5.008v-5.54zM13.017 6H2v5.54h11.017V6zM7.008 12.46H2V18h5.008v-5.54z"/></svg>
